!!!OTL: Das Maedchen und der Faehnrich
!!!OTL-incipit:Es wohnt ein reiches Schlaechterlein
!!!ARE: Europa, Mitteleuropa, Deutschland (), Brandenburg, Gramzow
!!!YOR: 6, S. 95
!!    1844 aufgezeichnet
!!!SCT: Q0127
!!!TXL: @@DE
!!!YEM: Copyright 1995, estate of Helmut Schaffrath.
**kern	**text
*ICvox	*
*M4/4	*
*met(c)	*
*k[f#]	*
*e:	*
{4d	1._Es
=1	=1
4.b	wohnt
8a	ein
4b	rei-
(8ccL	-ches
8bJ)	.
=2	=2
4.a	Schläch-
8g	-ter-
4a}	-lein
{(8bL	wohl
8aJ)	.
=3	=3
4g	an
4g	der
8gL	Kro-
8aJ	-ne-
4b	-bergs
=4	=4
(4.a	Hei-
8g)	.
4f#;}	-de,
{(8eL	sie
8f#J)	.
=5	=5
(8gL	hat
8aJ)	.
(8gL	ein
8f#J)	.
4e	ein-
8f#L	-zi-
8gJ	-ges
=6	=6
(8aL	Töch-
8bJ)	.
(8aL	-ter-
8gJ)	.
4f#}	-lein,
{4d	sie
=7	=7
4b	war
4b	ja
(8aL	ganz
8gJ)	.
(8f#L	al-
8eJ)	.
=8	=8
2f#	-lei-
4e}	-ne.
==	==
!!!Ag: Ballade, verbotene Liebe, Flucht
!!!ONB: ESAC (Essen Associative Code) Database: BALLADE
!!!AMT: simple quadruple
!!!AIN: vox
!!!EED: Helmut Schaffrath
!!!EEV: 1.0
!!@@COMMENT:"E 8069. Aufgereichnet August 1844
!!von d'Hargues in Gramʒow/ Brandenburg."
!!@@END:
!!!source: Deutsche Volkslieder mit ihren Melodien Balladen. Herausgegeben vom Deutschen Volksliedarchiv. Sechster Band. Freiburg/Breisgau 1976.
!!!page: 95
!!!ENC: Anna Maria Matuszewska
!!!EEV: 2025/03/06
*-	*-
